;FLAVOR:Marlin
;TIME:1936
;Filament used: 0.926857m
;Layer height: 0.16
;MINX:89.879
;MINY:109.962
;MINZ:0.2
;MAXX:135.646
;MAXY:155.731
;MAXZ:13.44
;Generated with Cura_SteamEngine 4.9.1
M140 S60
M105
M190 S60
M104 S200
M105
M109 S200
M82 ;absolute extrusion mode
; Ender 3 Custom Start G-code
G92 E0 ; Reset Extruder
G28 ; Home all axes
G1 Z2.0 F3000 ; Move Z Axis up little to prevent scratching of Heat Bed
G1 X0.1 Y20 Z0.3 F5000.0 ; Move to start position
G1 X0.1 Y200.0 Z0.3 F1500.0 E15 ; Draw the first line
G1 X0.4 Y200.0 Z0.3 F5000.0 ; Move to side a little
G1 X0.4 Y20 Z0.3 F1500.0 E30 ; Draw the second line
G92 E0 ; Reset Extruder
G1 Z2.0 F3000 ; Move Z Axis up little to prevent scratching of Heat Bed
G1 X5 Y20 Z0.3 F5000.0 ; Move over to prevent blob squish
G92 E0
G92 E0
G1 F1500 E-6.5
;LAYER_COUNT:87
;LAYER:0
M107
G0 F6000 X97.972 Y115.384 Z0.2
;TYPE:SKIRT
G1 F1500 E0
G1 F1200 X98.282 Y115.127 E0.01339
G1 X98.886 Y114.65 E0.03899
G1 X99.209 Y114.407 E0.05244
G1 X99.834 Y113.964 E0.07792
G1 X100.149 Y113.753 E0.09053
G1 X100.79 Y113.344 E0.11582
G1 X101.141 Y113.133 E0.12944
G1 X101.801 Y112.759 E0.15467
G1 X102.141 Y112.577 E0.16749
G1 X102.825 Y112.233 E0.19296
G1 X103.176 Y112.067 E0.20587
G1 X103.875 Y111.758 E0.23129
G1 X104.257 Y111.601 E0.24503
G1 X104.967 Y111.331 E0.27029
G1 X105.329 Y111.204 E0.28305
G1 X106.043 Y110.972 E0.30802
G1 X106.405 Y110.864 E0.32059
G1 X107.118 Y110.67 E0.34516
G1 X107.486 Y110.579 E0.35777
G1 X108.198 Y110.422 E0.38202
G1 X108.58 Y110.348 E0.39496
G1 X109.291 Y110.228 E0.41895
G1 X109.643 Y110.177 E0.43078
G1 X110.347 Y110.091 E0.45437
G1 X110.721 Y110.054 E0.46687
G1 X111.455 Y110 E0.49134
G1 X111.836 Y109.981 E0.50403
G1 X112.57 Y109.963 E0.52845
G1 X112.904 Y109.962 E0.53956
G1 X113.448 Y109.972 E0.55766
G1 X113.777 Y109.985 E0.56861
G1 X114.487 Y110.028 E0.59227
G1 X114.846 Y110.058 E0.60425
G1 X115.574 Y110.136 E0.6286
G1 X115.962 Y110.188 E0.64162
G1 X116.689 Y110.303 E0.6661
G1 X117.044 Y110.367 E0.6781
G1 X117.738 Y110.51 E0.70167
G1 X118.117 Y110.598 E0.71461
G1 X118.813 Y110.778 E0.73852
G1 X119.152 Y110.874 E0.75024
G1 X119.845 Y111.087 E0.77435
G1 X120.203 Y111.207 E0.78691
G1 X120.895 Y111.457 E0.81138
G1 X121.263 Y111.6 E0.82451
G1 X121.947 Y111.887 E0.84918
G1 X122.296 Y112.044 E0.86191
G1 X122.971 Y112.367 E0.8868
G1 X123.309 Y112.539 E0.89942
G1 X123.974 Y112.898 E0.92455
G1 X124.324 Y113.099 E0.93797
G1 X124.973 Y113.494 E0.96324
G1 X125.292 Y113.699 E0.97586
G1 X125.924 Y114.127 E1.00124
G1 X126.256 Y114.365 E1.01483
G1 X126.868 Y114.828 E1.04035
G1 X127.181 Y115.077 E1.05366
G1 X127.771 Y115.573 E1.07929
G1 X128.056 Y115.825 E1.09195
G1 X128.621 Y116.349 E1.11758
G1 X128.928 Y116.649 E1.13185
G1 X129.464 Y117.204 E1.15752
G1 X129.717 Y117.479 E1.16994
G1 X130.224 Y118.057 E1.19552
G1 X130.481 Y118.367 E1.20891
G1 X130.958 Y118.971 E1.23451
G1 X131.201 Y119.294 E1.24795
G1 X131.644 Y119.919 E1.27343
G1 X131.861 Y120.244 E1.28643
G1 X132.27 Y120.887 E1.31177
G1 X132.47 Y121.219 E1.32467
G1 X132.844 Y121.877 E1.34984
G1 X133.029 Y122.222 E1.36286
G1 X133.373 Y122.905 E1.38829
G1 X133.546 Y123.271 E1.40176
G1 X133.856 Y123.975 E1.42734
G1 X134.006 Y124.341 E1.4405
G1 X134.275 Y125.047 E1.46563
G1 X134.404 Y125.414 E1.47857
G1 X134.636 Y126.128 E1.50354
G1 X134.744 Y126.49 E1.5161
G1 X134.938 Y127.203 E1.54068
G1 X135.03 Y127.574 E1.55339
G1 X135.187 Y128.287 E1.57767
G1 X135.251 Y128.611 E1.58866
G1 X135.347 Y129.162 E1.60726
G1 X135.393 Y129.452 E1.61703
G1 X135.467 Y129.994 E1.63522
G1 X135.527 Y130.516 E1.6527
G1 X135.554 Y130.799 E1.66215
G1 X135.601 Y131.432 E1.68326
G1 X135.617 Y131.722 E1.69292
G1 X135.631 Y132.137 E1.70674
G1 X135.644 Y132.649 E1.72377
G1 X135.646 Y132.971 E1.73448
G1 X135.636 Y133.515 E1.75258
G1 X135.624 Y133.837 E1.76329
G1 X135.585 Y134.514 E1.78585
G1 X135.565 Y134.779 E1.79469
G1 X135.526 Y135.194 E1.80855
G1 X135.501 Y135.423 E1.81621
G1 X135.448 Y135.851 E1.83056
G1 X135.38 Y136.324 E1.84645
G1 X135.352 Y136.502 E1.85244
G1 X135.259 Y137.039 E1.87057
G1 X135.192 Y137.385 E1.88229
G1 X135.077 Y137.918 E1.90043
G1 X135.011 Y138.197 E1.90996
G1 X134.832 Y138.891 E1.9338
G1 X134.734 Y139.238 E1.94579
G1 X134.52 Y139.933 E1.96998
G1 X134.402 Y140.286 E1.98236
G1 X134.153 Y140.976 E2.00676
G1 X134.008 Y141.347 E2.02001
G1 X133.72 Y142.033 E2.04475
G1 X133.564 Y142.381 E2.05744
G1 X133.241 Y143.056 E2.08233
G1 X133.069 Y143.394 E2.09494
G1 X132.71 Y144.059 E2.12007
G1 X132.509 Y144.409 E2.1335
G1 X132.114 Y145.058 E2.15877
G1 X131.909 Y145.377 E2.17138
G1 X131.481 Y146.009 E2.19677
G1 X131.243 Y146.341 E2.21035
G1 X130.78 Y146.953 E2.23588
G1 X130.531 Y147.266 E2.24918
G1 X130.035 Y147.856 E2.27482
G1 X129.783 Y148.141 E2.28747
G1 X129.259 Y148.706 E2.3131
G1 X128.969 Y149.003 E2.32691
G1 X128.415 Y149.54 E2.35257
G1 X128.119 Y149.812 E2.36594
G1 X127.539 Y150.319 E2.39156
G1 X127.239 Y150.568 E2.40453
G1 X126.636 Y151.044 E2.43008
G1 X126.314 Y151.286 E2.44348
G1 X125.689 Y151.729 E2.46896
G1 X125.364 Y151.946 E2.48195
G1 X124.721 Y152.355 E2.5073
G1 X124.389 Y152.555 E2.52019
G1 X123.731 Y152.929 E2.54536
G1 X123.386 Y153.114 E2.55838
G1 X122.703 Y153.458 E2.58382
G1 X122.34 Y153.629 E2.59717
G1 X121.639 Y153.938 E2.62265
G1 X121.269 Y154.09 E2.63595
G1 X120.56 Y154.36 E2.66118
G1 X120.194 Y154.489 E2.67409
G1 X119.48 Y154.721 E2.69906
G1 X119.118 Y154.829 E2.71163
G1 X118.405 Y155.023 E2.7362
G1 X118.034 Y155.115 E2.74892
G1 X117.321 Y155.272 E2.7732
G1 X116.944 Y155.345 E2.78597
G1 X116.234 Y155.465 E2.80992
G1 X115.88 Y155.516 E2.82182
G1 X115.176 Y155.602 E2.8454
G1 X114.802 Y155.639 E2.8579
G1 X114.068 Y155.693 E2.88238
G1 X113.687 Y155.712 E2.89507
G1 X112.952 Y155.73 E2.91952
G1 X112.617 Y155.731 E2.93067
G1 X112.074 Y155.721 E2.94873
G1 X111.746 Y155.708 E2.95965
G1 X111.036 Y155.665 E2.98331
G1 X110.677 Y155.635 E2.99529
G1 X109.949 Y155.557 E3.01964
G1 X109.561 Y155.505 E3.03266
G1 X108.834 Y155.39 E3.05714
G1 X108.479 Y155.326 E3.06914
G1 X107.785 Y155.183 E3.09271
G1 X107.406 Y155.095 E3.10565
G1 X106.71 Y154.915 E3.12956
G1 X106.371 Y154.819 E3.14128
G1 X105.678 Y154.606 E3.16539
G1 X105.32 Y154.486 E3.17795
G1 X104.628 Y154.236 E3.20242
G1 X104.26 Y154.093 E3.21555
G1 X103.576 Y153.806 E3.24022
G1 X103.227 Y153.649 E3.25295
G1 X102.552 Y153.326 E3.27784
G1 X102.206 Y153.149 E3.29077
G1 X101.541 Y152.789 E3.31592
G1 X101.208 Y152.598 E3.32869
G1 X100.557 Y152.203 E3.35401
G1 X100.222 Y151.989 E3.36723
G1 X99.59 Y151.56 E3.39264
G1 X99.267 Y151.328 E3.40587
G1 X98.656 Y150.866 E3.43134
G1 X98.342 Y150.615 E3.44471
G1 X97.753 Y150.12 E3.4703
G1 X97.467 Y149.868 E3.48298
G1 X96.901 Y149.343 E3.50866
G1 X96.604 Y149.053 E3.52246
G1 X96.067 Y148.499 E3.54813
G1 X95.795 Y148.203 E3.5615
G1 X95.289 Y147.624 E3.58707
G1 X95.041 Y147.325 E3.59999
G1 X94.564 Y146.721 E3.62559
G1 X94.32 Y146.396 E3.63911
G1 X93.878 Y145.772 E3.66454
G1 X93.666 Y145.457 E3.67717
G1 X93.256 Y144.814 E3.70253
G1 X93.049 Y144.47 E3.71589
G1 X92.675 Y143.811 E3.74109
G1 X92.489 Y143.462 E3.75424
G1 X92.146 Y142.779 E3.77966
G1 X91.982 Y142.433 E3.7924
G1 X91.672 Y141.732 E3.81789
G1 X91.515 Y141.347 E3.83172
G1 X91.246 Y140.639 E3.85691
G1 X91.119 Y140.279 E3.86961
G1 X90.887 Y139.565 E3.89458
G1 X90.779 Y139.203 E3.90714
G1 X90.585 Y138.49 E3.93172
G1 X90.494 Y138.122 E3.94433
G1 X90.337 Y137.41 E3.96858
G1 X90.263 Y137.028 E3.98152
G1 X90.143 Y136.317 E4.0055
G1 X90.092 Y135.965 E4.01733
G1 X90.006 Y135.261 E4.04092
G1 X89.969 Y134.887 E4.05342
G1 X89.915 Y134.153 E4.0779
G1 X89.896 Y133.777 E4.09042
G1 X89.882 Y133.22 E4.10895
G1 X89.879 Y132.703 E4.12615
G1 X89.88 Y132.535 E4.13174
G1 X89.887 Y132.158 E4.14428
G1 X89.9 Y131.832 E4.15513
G1 X89.943 Y131.121 E4.17882
G1 X89.974 Y130.759 E4.1909
G1 X90.052 Y130.033 E4.21519
G1 X90.102 Y129.651 E4.228
G1 X90.217 Y128.922 E4.25255
G1 X90.282 Y128.563 E4.26469
G1 X90.425 Y127.869 E4.28825
G1 X90.512 Y127.495 E4.30102
G1 X90.691 Y126.801 E4.32486
G1 X90.791 Y126.448 E4.33707
G1 X91.005 Y125.755 E4.36119
G1 X91.119 Y125.415 E4.37312
G1 X91.368 Y124.723 E4.39758
G1 X91.517 Y124.341 E4.41121
G1 X91.805 Y123.656 E4.43593
G1 X91.959 Y123.312 E4.44846
G1 X92.282 Y122.637 E4.47335
G1 X92.45 Y122.307 E4.48567
G1 X92.808 Y121.642 E4.51079
G1 X93.018 Y121.276 E4.52482
G1 X93.414 Y120.627 E4.55011
G1 X93.614 Y120.316 E4.56241
G1 X94.042 Y119.684 E4.5878
G1 X94.28 Y119.352 E4.60138
G1 X94.743 Y118.74 E4.62691
G1 X94.992 Y118.427 E4.64021
G1 X95.488 Y117.837 E4.66585
G1 X95.74 Y117.552 E4.6785
G1 X96.264 Y116.987 E4.70413
G1 X96.564 Y116.68 E4.71841
G1 X97.119 Y116.144 E4.74407
G1 X97.394 Y115.891 E4.7565
G1 X97.972 Y115.384 E4.78207
G0 F6000 X98.236 Y115.685
G1 F1200 X98.53 Y115.441 E4.79478
G1 X99.134 Y114.964 E4.82037
G1 X99.441 Y114.734 E4.83313
G1 X100.066 Y114.291 E4.85861
G1 X100.365 Y114.09 E4.8706
G1 X101.006 Y113.681 E4.89589
G1 X101.338 Y113.481 E4.90878
G1 X101.998 Y113.107 E4.93401
G1 X102.321 Y112.934 E4.94619
G1 X103.005 Y112.59 E4.97166
G1 X103.338 Y112.433 E4.9839
G1 X104.037 Y112.124 E5.00932
G1 X104.399 Y111.975 E5.02234
G1 X105.109 Y111.705 E5.04761
G1 X105.452 Y111.584 E5.05971
G1 X106.166 Y111.352 E5.08468
G1 X106.51 Y111.25 E5.09661
G1 X107.223 Y111.056 E5.12119
G1 X107.573 Y110.97 E5.13317
G1 X108.285 Y110.813 E5.15742
G1 X108.646 Y110.742 E5.16966
G1 X109.357 Y110.622 E5.19364
G1 X109.692 Y110.574 E5.2049
G1 X110.396 Y110.488 E5.22849
G1 X110.75 Y110.453 E5.24032
G1 X111.484 Y110.399 E5.2648
G1 X111.846 Y110.381 E5.27685
G1 X112.58 Y110.363 E5.30127
G1 X112.897 Y110.362 E5.31182
G1 X113.441 Y110.372 E5.32991
G1 X113.752 Y110.385 E5.34027
G1 X114.462 Y110.428 E5.36393
G1 X114.803 Y110.456 E5.3753
G1 X115.531 Y110.534 E5.39966
G1 X115.899 Y110.583 E5.412
G1 X116.626 Y110.698 E5.43649
G1 X116.963 Y110.759 E5.44788
G1 X117.657 Y110.902 E5.47144
G1 X118.017 Y110.986 E5.48374
G1 X118.713 Y111.166 E5.50765
G1 X119.034 Y111.257 E5.51875
G1 X119.727 Y111.47 E5.54286
G1 X120.067 Y111.583 E5.55478
G1 X120.759 Y111.833 E5.57925
G1 X121.108 Y111.969 E5.59171
G1 X121.792 Y112.256 E5.61638
G1 X122.123 Y112.405 E5.62845
G1 X122.798 Y112.728 E5.65334
G1 X123.119 Y112.891 E5.66531
G1 X123.784 Y113.25 E5.69045
G1 X124.116 Y113.441 E5.70319
G1 X124.765 Y113.836 E5.72846
G1 X125.067 Y114.03 E5.7404
G1 X125.699 Y114.458 E5.76578
G1 X126.015 Y114.684 E5.77871
G1 X126.627 Y115.147 E5.80423
G1 X126.924 Y115.384 E5.81687
G1 X127.514 Y115.88 E5.8425
G1 X127.784 Y116.118 E5.85447
G1 X128.349 Y116.642 E5.8801
G1 X128.64 Y116.927 E5.89365
G1 X129.176 Y117.482 E5.91931
G1 X129.416 Y117.743 E5.93111
G1 X129.923 Y118.321 E5.95668
G1 X130.167 Y118.615 E5.96939
G1 X130.644 Y119.219 E5.99499
G1 X130.874 Y119.526 E6.00774
G1 X131.317 Y120.151 E6.03322
G1 X131.524 Y120.458 E6.04554
G1 X131.933 Y121.101 E6.07089
G1 X132.122 Y121.416 E6.0831
G1 X132.496 Y122.074 E6.10828
G1 X132.672 Y122.402 E6.12066
G1 X133.016 Y123.085 E6.14609
G1 X133.179 Y123.432 E6.15884
G1 X133.489 Y124.136 E6.18443
G1 X133.632 Y124.483 E6.19691
G1 X133.901 Y125.189 E6.22204
G1 X134.024 Y125.537 E6.23432
G1 X134.256 Y126.251 E6.25929
G1 X134.358 Y126.595 E6.27122
G1 X134.552 Y127.308 E6.2958
G1 X134.639 Y127.66 E6.30786
G1 X134.796 Y128.373 E6.33214
G1 X134.857 Y128.68 E6.34255
G1 X134.952 Y129.225 E6.36095
G1 X134.998 Y129.515 E6.37072
G1 X135.071 Y130.047 E6.38858
G1 X135.13 Y130.56 E6.40575
G1 X135.155 Y130.829 E6.41474
G1 X135.202 Y131.462 E6.43585
G1 X135.217 Y131.737 E6.44501
G1 X135.232 Y132.147 E6.45865
G1 X135.245 Y132.659 E6.47569
G1 X135.246 Y132.964 E6.48583
G1 X135.236 Y133.501 E6.5037
G1 X135.216 Y133.988 E6.51991
G1 X135.186 Y134.49 E6.53663
G1 X135.167 Y134.741 E6.54501
G1 X135.128 Y135.156 E6.55887
G1 X135.104 Y135.373 E6.56613
G1 X135.029 Y135.966 E6.58601
G1 X134.958 Y136.435 E6.60179
G1 X134.866 Y136.963 E6.61961
G1 X134.763 Y137.485 E6.63731
G1 X134.687 Y137.832 E6.64913
G1 X134.623 Y138.097 E6.65819
G1 X134.444 Y138.791 E6.68203
G1 X134.351 Y139.121 E6.69343
G1 X134.137 Y139.816 E6.71762
G1 X134.026 Y140.15 E6.72933
G1 X133.777 Y140.84 E6.75373
G1 X133.639 Y141.193 E6.76633
G1 X133.351 Y141.879 E6.79108
G1 X133.203 Y142.208 E6.80308
G1 X132.88 Y142.883 E6.82796
G1 X132.717 Y143.204 E6.83994
G1 X132.358 Y143.869 E6.86507
G1 X132.167 Y144.201 E6.87781
G1 X131.772 Y144.85 E6.90308
G1 X131.578 Y145.152 E6.91502
G1 X131.15 Y145.784 E6.94041
G1 X130.924 Y146.1 E6.95333
G1 X130.461 Y146.712 E6.97885
G1 X130.224 Y147.009 E6.99149
G1 X129.728 Y147.599 E7.01713
G1 X129.49 Y147.869 E7.0291
G1 X128.966 Y148.434 E7.05473
G1 X128.69 Y148.715 E7.06783
G1 X128.136 Y149.252 E7.09349
G1 X127.856 Y149.51 E7.10616
G1 X127.276 Y150.017 E7.13178
G1 X126.991 Y150.254 E7.14411
G1 X126.388 Y150.73 E7.16966
G1 X126.082 Y150.959 E7.18237
G1 X125.457 Y151.402 E7.20785
G1 X125.15 Y151.609 E7.22016
G1 X124.507 Y152.018 E7.24551
G1 X124.192 Y152.207 E7.25773
G1 X123.534 Y152.581 E7.2829
G1 X123.206 Y152.757 E7.29528
G1 X122.523 Y153.101 E7.32072
G1 X122.179 Y153.263 E7.33336
G1 X121.478 Y153.572 E7.35884
G1 X121.127 Y153.717 E7.37148
G1 X120.418 Y153.987 E7.39671
G1 X120.071 Y154.109 E7.40894
G1 X119.357 Y154.341 E7.43391
G1 X119.013 Y154.443 E7.44585
G1 X118.3 Y154.637 E7.47042
G1 X117.948 Y154.724 E7.48248
G1 X117.235 Y154.881 E7.50677
G1 X116.877 Y154.951 E7.5189
G1 X116.167 Y155.071 E7.54285
G1 X115.831 Y155.119 E7.55414
G1 X115.127 Y155.205 E7.57773
G1 X114.773 Y155.24 E7.58956
G1 X114.039 Y155.294 E7.61404
G1 X113.677 Y155.312 E7.62609
G1 X112.942 Y155.33 E7.65055
G1 X112.625 Y155.331 E7.66109
G1 X112.082 Y155.321 E7.67915
G1 X111.771 Y155.308 E7.6895
G1 X111.061 Y155.265 E7.71316
G1 X110.72 Y155.237 E7.72454
G1 X109.992 Y155.159 E7.74889
G1 X109.624 Y155.11 E7.76124
G1 X108.897 Y154.995 E7.78572
G1 X108.56 Y154.934 E7.79711
G1 X107.866 Y154.791 E7.82068
G1 X107.506 Y154.707 E7.83298
G1 X106.81 Y154.527 E7.85689
G1 X106.489 Y154.436 E7.86798
G1 X105.796 Y154.223 E7.8921
G1 X105.456 Y154.11 E7.90401
G1 X104.764 Y153.86 E7.92849
G1 X104.415 Y153.724 E7.94094
G1 X103.731 Y153.437 E7.96562
G1 X103.4 Y153.288 E7.97769
G1 X102.725 Y152.965 E8.00258
G1 X102.396 Y152.798 E8.01485
G1 X101.731 Y152.438 E8.04
G1 X101.415 Y152.257 E8.05211
G1 X100.764 Y151.862 E8.07744
G1 X100.447 Y151.658 E8.08998
G1 X99.815 Y151.229 E8.11538
G1 X99.508 Y151.009 E8.12794
G1 X98.897 Y150.547 E8.15342
G1 X98.599 Y150.309 E8.16611
G1 X98.01 Y149.814 E8.1917
G1 X97.739 Y149.574 E8.20374
G1 X97.173 Y149.049 E8.22941
G1 X96.892 Y148.774 E8.24249
G1 X96.355 Y148.22 E8.26815
G1 X96.096 Y147.94 E8.28084
G1 X95.59 Y147.361 E8.30641
G1 X95.355 Y147.077 E8.31867
G1 X94.878 Y146.473 E8.34427
G1 X94.646 Y146.164 E8.35712
G1 X94.204 Y145.54 E8.38256
G1 X94.004 Y145.242 E8.39449
G1 X93.594 Y144.599 E8.41986
G1 X93.397 Y144.272 E8.43256
G1 X93.023 Y143.613 E8.45776
G1 X92.846 Y143.282 E8.47024
G1 X92.503 Y142.599 E8.49566
G1 X92.348 Y142.271 E8.50773
G1 X92.038 Y141.57 E8.53322
G1 X91.888 Y141.205 E8.54635
G1 X91.619 Y140.497 E8.57154
G1 X91.499 Y140.156 E8.58356
G1 X91.267 Y139.442 E8.60853
G1 X91.165 Y139.098 E8.62046
G1 X90.971 Y138.385 E8.64504
G1 X90.885 Y138.035 E8.65703
G1 X90.728 Y137.323 E8.68128
G1 X90.657 Y136.962 E8.69352
G1 X90.537 Y136.251 E8.7175
G1 X90.489 Y135.916 E8.72875
G1 X90.403 Y135.212 E8.75234
G1 X90.368 Y134.858 E8.76417
G1 X90.314 Y134.124 E8.78865
G1 X90.296 Y133.767 E8.80054
G1 X90.282 Y133.21 E8.81907
G1 X90.279 Y132.702 E8.83597
G1 X90.287 Y132.166 E8.8538
G1 X90.299 Y131.856 E8.86412
G1 X90.342 Y131.145 E8.88781
G1 X90.371 Y130.802 E8.89926
G1 X90.449 Y130.076 E8.92354
G1 X90.497 Y129.713 E8.93572
G1 X90.612 Y128.984 E8.96027
